assets/icons/start_button.svg

<svg width="168" height="56" viewBox="0 0 168 56" fill="none" xmlns="http://www.w3.org/2000/svg">
<rect width="168" height="56" rx="28" fill="url(#paint0_linear_6608_3599)"/>
<rect x="1" y="1" width="166" height="54" rx="27" stroke="url(#paint1_linear_6608_3599)" stroke-width="2"/>
<rect x="4.5" y="4.5" width="159" height="47" rx="23.5" fill="url(#paint2_linear_6608_3599)" stroke="#320033"/>
<g style="mix-blend-mode:overlay">
<rect x="11.4546" y="7" width="145.091" height="28" rx="14" fill="url(#paint3_linear_6608_3599)"/>
</g>
<path d="M71.2876 25.8523C71.2498 25.4356 71.0812 25.1117 70.782 24.8807C70.4865 24.6458 70.0642 24.5284 69.5149 24.5284C69.1513 24.5284 68.8482 24.5758 68.6058 24.6705C68.3634 24.7652 68.1816 24.8958 68.0604 25.0625C67.9392 25.2254 67.8767 25.4129 67.8729 25.625C67.8653 25.7992 67.8994 25.9527 67.9751 26.0852C68.0547 26.2178 68.1683 26.3352 68.3161 26.4375C68.4676 26.536 68.6494 26.6231 68.8615 26.6989C69.0736 26.7746 69.3123 26.8409 69.5774 26.8977L70.5774 27.125C71.1532 27.25 71.6607 27.4167 72.1001 27.625C72.5433 27.8333 72.9145 28.0814 73.2138 28.3693C73.5168 28.6572 73.746 28.9886 73.9013 29.3636C74.0566 29.7386 74.1361 30.1591 74.1399 30.625C74.1361 31.3598 73.9505 31.9905 73.5831 32.517C73.2157 33.0436 72.6873 33.447 71.9979 33.7273C71.3123 34.0076 70.4846 34.1477 69.5149 34.1477C68.5414 34.1477 67.6929 34.0019 66.9695 33.7102C66.246 33.4186 65.6835 32.9754 65.282 32.3807C64.8804 31.786 64.674 31.0341 64.6626 30.125H67.3558C67.3786 30.5 67.4789 30.8125 67.657 31.0625C67.835 31.3125 68.0793 31.5019 68.3899 31.6307C68.7043 31.7595 69.0679 31.8239 69.4808 31.8239C69.8596 31.8239 70.1816 31.7727 70.4467 31.6705C70.7157 31.5682 70.9221 31.4261 71.0661 31.2443C71.21 31.0625 71.2839 30.8542 71.2876 30.6193C71.2839 30.3996 71.2157 30.2121 71.0831 30.0568C70.9505 29.8977 70.746 29.7614 70.4695 29.6477C70.1967 29.5303 69.8482 29.4223 69.424 29.3239L68.2081 29.0398C67.2005 28.8087 66.407 28.4356 65.8274 27.9205C65.2479 27.4015 64.96 26.7008 64.9638 25.8182C64.96 25.0985 65.1532 24.4678 65.5433 23.9261C65.9335 23.3845 66.4732 22.9621 67.1626 22.6591C67.852 22.3561 68.638 22.2045 69.5206 22.2045C70.4221 22.2045 71.2043 22.358 71.8672 22.6648C72.5339 22.9678 73.0509 23.3939 73.4183 23.9432C73.7857 24.4924 73.9732 25.1288 73.9808 25.8523H71.2876ZM80.4865 25.2727V27.3182H74.9808V25.2727H80.4865ZM76.1342 23.1818H78.9126V31.2557C78.9126 31.4261 78.9392 31.5644 78.9922 31.6705C79.049 31.7727 79.1304 31.8466 79.2365 31.892C79.3426 31.9337 79.4695 31.9545 79.6172 31.9545C79.7232 31.9545 79.835 31.9451 79.9524 31.9261C80.0736 31.9034 80.1645 31.8845 80.2251 31.8693L80.6456 33.875C80.513 33.9129 80.3255 33.9602 80.0831 34.017C79.8445 34.0739 79.5585 34.1098 79.2251 34.125C78.5736 34.1553 78.0149 34.0795 77.549 33.8977C77.0869 33.7121 76.7327 33.4242 76.4865 33.0341C76.2441 32.6439 76.1267 32.1534 76.1342 31.5625V23.1818ZM84.3643 34.1477C83.8075 34.1477 83.3132 34.0549 82.8814 33.8693C82.4534 33.6799 82.1143 33.3958 81.8643 33.017C81.6181 32.6345 81.495 32.1553 81.495 31.5795C81.495 31.0947 81.5803 30.6856 81.7507 30.3523C81.9212 30.0189 82.156 29.7481 82.4553 29.5398C82.7545 29.3314 83.0992 29.1742 83.4893 29.0682C83.8795 28.9583 84.2962 28.8845 84.7393 28.8466C85.2356 28.8011 85.6352 28.7538 85.9382 28.7045C86.2412 28.6515 86.4609 28.5777 86.5973 28.483C86.7375 28.3845 86.8075 28.2462 86.8075 28.0682V28.0398C86.8075 27.7481 86.7071 27.5227 86.5064 27.3636C86.3056 27.2045 86.0348 27.125 85.6939 27.125C85.3265 27.125 85.031 27.2045 84.8075 27.3636C84.584 27.5227 84.442 27.7424 84.3814 28.0227L81.8189 27.9318C81.8946 27.4015 82.0897 26.928 82.4041 26.5114C82.7223 26.0909 83.1579 25.7614 83.7109 25.5227C84.2678 25.2803 84.9363 25.1591 85.7166 25.1591C86.2734 25.1591 86.7867 25.2254 87.2564 25.358C87.7261 25.4867 88.1352 25.6761 88.4837 25.9261C88.8321 26.1723 89.1011 26.4754 89.2905 26.8352C89.4837 27.1951 89.5803 27.6061 89.5803 28.0682V34H86.9666V32.7841H86.8984C86.7431 33.0795 86.5443 33.3295 86.3018 33.5341C86.0632 33.7386 85.781 33.892 85.4553 33.9943C85.1333 34.0966 84.7696 34.1477 84.3643 34.1477ZM85.2223 32.3295C85.5215 32.3295 85.7905 32.2689 86.0291 32.1477C86.2715 32.0265 86.4647 31.8598 86.6087 31.6477C86.7526 31.4318 86.8246 31.1818 86.8246 30.8977V30.0682C86.745 30.1098 86.6484 30.1477 86.5348 30.1818C86.425 30.2159 86.3037 30.2481 86.1712 30.2784C86.0386 30.3087 85.9022 30.3352 85.7621 30.358C85.6219 30.3807 85.4875 30.4015 85.3587 30.4205C85.0973 30.4621 84.8738 30.5265 84.6882 30.6136C84.5064 30.7008 84.3662 30.8144 84.2678 30.9545C84.1731 31.0909 84.1257 31.2538 84.1257 31.4432C84.1257 31.7311 84.228 31.9508 84.4325 32.1023C84.6409 32.2538 84.9041 32.3295 85.2223 32.3295ZM91.2791 34V25.2727H93.978V26.8636H94.0689C94.228 26.2879 94.4875 25.8598 94.8473 25.5795C95.2071 25.2955 95.6257 25.1534 96.103 25.1534C96.2318 25.1534 96.3643 25.1629 96.5007 25.1818C96.6371 25.197 96.764 25.2216 96.8814 25.2557V27.6705C96.7488 27.625 96.5746 27.589 96.3587 27.5625C96.1465 27.536 95.9571 27.5227 95.7905 27.5227C95.4609 27.5227 95.1636 27.5966 94.8984 27.7443C94.6371 27.8883 94.4306 28.0909 94.2791 28.3523C94.1314 28.6098 94.0575 28.9129 94.0575 29.2614V34H91.2791ZM103.346 25.2727V27.3182H97.8402V25.2727H103.346ZM98.9936 23.1818H101.772V31.2557C101.772 31.4261 101.799 31.5644 101.852 31.6705C101.908 31.7727 101.99 31.8466 102.096 31.892C102.202 31.9337 102.329 31.9545 102.477 31.9545C102.583 31.9545 102.694 31.9451 102.812 31.9261C102.933 31.9034 103.024 31.8845 103.085 31.8693L103.505 33.875C103.372 33.9129 103.185 33.9602 102.942 34.017C102.704 34.0739 102.418 34.1098 102.085 34.125C101.433 34.1553 100.874 34.0795 100.408 33.8977C99.9463 33.7121 99.5921 33.4242 99.3459 33.0341C99.1035 32.6439 98.986 32.1534 98.9936 31.5625V23.1818Z" fill="white"/>
<defs>
<linearGradient id="paint0_linear_6608_3599" x1="84" y1="0" x2="84" y2="56" gradientUnits="userSpaceOnUse">
<stop stop-color="#FFEB3C"/>
<stop offset="0.135" stop-color="#FF730E"/>
<stop offset="0.425" stop-color="#B3330A"/>
<stop offset="0.66" stop-color="#FFE600"/>
<stop offset="1" stop-color="#FF730E"/>
</linearGradient>
<linearGradient id="paint1_linear_6608_3599" x1="84" y1="0" x2="84" y2="56" gradientUnits="userSpaceOnUse">
<stop stop-color="#FF730E"/>
<stop offset="0.295" stop-color="#C03900"/>
<stop offset="0.525" stop-color="#DBFF00"/>
<stop offset="0.97" stop-color="#CE7C00"/>
</linearGradient>
<linearGradient id="paint2_linear_6608_3599" x1="84" y1="4" x2="84" y2="52" gradientUnits="userSpaceOnUse">
<stop stop-color="#277DFF"/>
<stop offset="0.395" stop-color="#154CB7"/>
<stop offset="0.78" stop-color="#061072"/>
<stop offset="1" stop-color="#02408A"/>
</linearGradient>
<linearGradient id="paint3_linear_6608_3599" x1="84" y1="7" x2="84" y2="35" gradientUnits="userSpaceOnUse">
<stop stop-color="white"/>
<stop offset="1" stop-color="white" stop-opacity="0"/>
</linearGradient>
</defs>
</svg>

<svg xmlns="http://www.w3.org/2000/svg" width="168" height="56" fill="none" xmlns:v="https://vecta.io/nano"><rect width="168" height="56" rx="28" fill="url(#A)"/><rect x="1" y="1" width="166" height="54" rx="27" stroke="url(#B)" stroke-width="2"/><rect x="4.5" y="4.5" width="159" height="47" rx="23.5" fill="url(#C)" stroke="#320033"/><rect x="11.455" y="7" width="145.091" height="28" rx="14" fill="url(#D)" style="mix-blend-mode:overlay"/><path d="M71.288 25.852c-.038-.417-.206-.741-.506-.972s-.718-.352-1.267-.352c-.364 0-.667.047-.909.142s-.424.225-.545.392-.184.35-.187.563c-.008.174.026.328.102.46s.193.25.341.352.333.186.545.261.451.142.716.199l1 .227c.576.125 1.083.292 1.523.5s.814.456 1.114.744a2.88 2.88 0 0 1 .688.994c.155.375.235.795.239 1.261-.004.735-.189 1.366-.557 1.892s-.896.93-1.585 1.21-1.513.42-2.483.42-1.822-.146-2.545-.437-1.286-.735-1.687-1.33-.608-1.347-.619-2.256h2.693c.023.375.123.688.301.938a1.65 1.65 0 0 0 .733.568c.314.129.678.193 1.091.193.379 0 .701-.051.966-.153s.475-.244.619-.426.218-.39.221-.625a.86.86 0 0 0-.204-.562c-.133-.159-.337-.295-.614-.409s-.621-.225-1.045-.324l-1.216-.284c-1.008-.231-1.801-.604-2.381-1.119s-.867-1.22-.864-2.102c-.004-.72.189-1.35.579-1.892s.93-.964 1.619-1.267 1.475-.455 2.358-.455c.901 0 1.684.154 2.347.46s1.184.729 1.551 1.278.555 1.186.563 1.909h-2.693zm9.199-.58v2.046h-5.506v-2.046h5.506zm-4.352-2.091h2.778v8.074a.93.93 0 0 0 .08.415c.057.102.138.176.244.221a1.04 1.04 0 0 0 .381.063 2.1 2.1 0 0 0 .335-.028l.273-.057.421 2.006-.562.142c-.239.057-.525.093-.858.108-.651.03-1.21-.045-1.676-.227s-.816-.474-1.062-.864-.36-.881-.352-1.472v-8.381zm8.23 10.966c-.557 0-1.051-.093-1.483-.278a2.31 2.31 0 0 1-1.017-.852c-.246-.383-.369-.862-.369-1.438 0-.485.085-.894.256-1.227s.405-.604.705-.812a3.31 3.31 0 0 1 1.034-.472c.39-.11.807-.184 1.25-.222l1.199-.142c.303-.053.523-.127.659-.221s.21-.237.21-.415v-.028c0-.292-.1-.517-.301-.676s-.472-.239-.812-.239c-.367 0-.663.079-.886.239a1.05 1.05 0 0 0-.426.659l-2.562-.091a3.03 3.03 0 0 1 .585-1.42c.318-.42.754-.75 1.307-.989s1.225-.364 2.006-.364c.557 0 1.07.066 1.54.199s.879.318 1.227.568a2.57 2.57 0 0 1 .807.909c.193.36.29.771.29 1.233V34h-2.614v-1.216h-.068c-.155.295-.354.545-.597.75a2.38 2.38 0 0 1-.847.46c-.322.102-.686.153-1.091.153zm.858-1.818c.299 0 .568-.061.807-.182a1.49 1.49 0 0 0 .58-.5 1.32 1.32 0 0 0 .216-.75v-.829a1.66 1.66 0 0 1-.29.114l-.364.097-.409.08-.403.063a2.51 2.51 0 0 0-.671.193c-.182.087-.322.201-.42.341s-.142.299-.142.489c0 .288.102.508.307.659s.472.227.79.227zM91.279 34v-8.727h2.699v1.591h.091c.159-.576.419-1.004.778-1.284s.778-.426 1.256-.426c.129 0 .261.009.398.028s.263.04.381.074v2.415c-.133-.046-.307-.082-.523-.108a4.64 4.64 0 0 0-.568-.04c-.33 0-.627.074-.892.222a1.59 1.59 0 0 0-.619.608c-.148.258-.222.561-.222.909V34h-2.778zm12.067-8.727v2.046H97.84v-2.046h5.506zm-4.352-2.091h2.778v8.074a.93.93 0 0 0 .08.415c.056.102.138.176.244.221a1.04 1.04 0 0 0 .381.063c.106 0 .217-.009.335-.028l.273-.057.42 2.006-.563.142c-.238.057-.524.093-.857.108-.652.03-1.211-.045-1.677-.227s-.816-.474-1.062-.864-.36-.881-.352-1.472v-8.381z" fill="#fff"/><defs><linearGradient id="A" x1="84" y1="0" x2="84" y2="56" gradientUnits="userSpaceOnUse"><stop stop-color="#ffeb3c"/><stop offset=".135" stop-color="#ff730e"/><stop offset=".425" stop-color="#b3330a"/><stop offset=".66" stop-color="#ffe600"/><stop offset="1" stop-color="#ff730e"/></linearGradient><linearGradient id="B" x1="84" y1="0" x2="84" y2="56" gradientUnits="userSpaceOnUse"><stop stop-color="#ff730e"/><stop offset=".295" stop-color="#c03900"/><stop offset=".525" stop-color="#dbff00"/><stop offset=".97" stop-color="#ce7c00"/></linearGradient><linearGradient id="C" x1="84" y1="4" x2="84" y2="52" gradientUnits="userSpaceOnUse"><stop stop-color="#277dff"/><stop offset=".395" stop-color="#154cb7"/><stop offset=".78" stop-color="#061072"/><stop offset="1" stop-color="#02408a"/></linearGradient><linearGradient id="D" x1="84" y1="7" x2="84" y2="35" gradientUnits="userSpaceOnUse"><stop stop-color="#fff"/><stop offset="1" stop-color="#fff" stop-opacity="0"/></linearGradient></defs></svg>
